X:1
T:3
T:4
T:160 Kurze Übungen op. 821
T:Carl Czerny
C:Carl Czerny
%%score { 1 | ( 2 3 ) }
L:1/8
Q:3/8=90
M:6/8
K:C
V:1 treble nm="Piano" snm="Pno."
V:2 treble 
V:3 treble 
V:1
"^Vivace"!p!"_dolce" .!2!e.f.g{/!5!a} .!4!g.f.e | .d.e.f{/!5!g} .!4!f.e.d | %2
 .!3!e.d.c .c.[Bd].[ce] | ([ce]3 .[Bd]) z z |"_cresc." .!2!e.f.g{/a} .g.f.e | %5
 .!2!a.b.c'{/d'} .c'.b.a |!f! (!1!g.!5!c').!2!!4![ce] (!1!!5![Bg].f).!1!!3![Bd] | .c z z z2 z |] %8
V:2
 !5!C/G/D/G/E/G/ !2!!3!E/G/D/G/C/G/ | !5!B,/G/!4!C/G/!3!D/G/ !2!!3!D/G/C/G/B,/G/ | %2
 !5!C/G/D/G/E/G/ !2!!3!E/G/D/G/C/G/ | G,/G/^F/G/F/G/ F/G/!2!A/!1!G/!2!=F/!4!D/ | %4
 !5!C/G/D/G/E/G/ !2!!3!E/G/D/G/C/G/ |[K:bass] !5!F,/C/G,/C/A,/C/ !2!!3!A,/C/G,/C/F,/C/ | %6
 !5!G,3 !5!G,3 | !4!C/!2!E/!1!G/E/G/E/ C z z |] %8
V:3
 x6 | x6 | x6 | x6 | x6 |[K:bass] x6 | G,/!1!E/!2!C/E/C/E/ G,/!1!F/!2!D/F/D/F/ | x6 |] %8

